X: 14548
T: Gan Ainm
R: jig
M: 6/8
K: Dmajor
|:dfe dfd|cec AaA|dfe dfd|cea bge|
dfe dfd|cec AaA|d2a bge|1 cAa d3:|2 cAa d^de||
|:fdc Bcd|ecB AaA|fdc Bcd|fga bge|
fdc Bcd|ecB AaA|d2a bge|1 cAa d^de:|2 cAa d3||

